match-match-game/assets/images/mark-star.svg

<svg width="20" height="20" fill="none" xmlns="http://www.w3.org/2000/svg"><path d="M9.99 0C4.47 0 0 4.48 0 10s4.47 10 9.99 10C15.52 20 20 15.52 20 10S15.52 0 9.99 0zm4.24 16L10 13.45 5.77 16l1.12-4.81-3.73-3.23 4.92-.42L10 3l1.92 4.53 4.92.42-3.73 3.23L14.23 16z" fill="#fff" fill-opacity=".7"/></svg>

<svg width="20" height="20" viewBox="0 0 20 20" fill="none" xmlns="http://www.w3.org/2000/svg">
<path d="M9.99 0C4.47 0 0 4.48 0 10C0 15.52 4.47 20 9.99 20C15.52 20 20 15.52 20 10C20 4.48 15.52 0 9.99 0ZM14.23 16L10 13.45L5.77 16L6.89 11.19L3.16 7.96L8.08 7.54L10 3L11.92 7.53L16.84 7.95L13.11 11.18L14.23 16Z" fill="white" fill-opacity="0.7"/>
</svg>
